en/_assets/wiki/svg/type-checkbox.svg

<svg xmlns="http://www.w3.org/2000/svg" xmlns:xlink="http://www.w3.org/1999/xlink" width="16" height="16" class="yc-icon GridTable-HeaderCellIcon" fill="currentColor" stroke="none" aria-hidden="true"><svg viewBox="0 0 12 12" xmlns="http://www.w3.org/2000/svg"><path d="M10.4688 0.4375H1.53125C0.845703 0.4375 0.3125 0.996094 0.3125 1.65625V10.5938C0.3125 11.2793 0.845703 11.8125 1.53125 11.8125H10.4688C11.1289 11.8125 11.6875 11.2793 11.6875 10.5938V1.65625C11.6875 0.996094 11.1289 0.4375 10.4688 0.4375ZM10.4688 10.5938H1.53125V1.65625H10.4688V10.5938ZM9.55469 4.47461C9.65625 4.34766 9.65625 4.16992 9.55469 4.04297L8.9707 3.45898C8.86914 3.33203 8.66602 3.33203 8.53906 3.45898L4.95898 7.01367L3.43555 5.49023C3.30859 5.36328 3.13086 5.36328 3.00391 5.49023L2.41992 6.04883C2.31836 6.17578 2.31836 6.37891 2.41992 6.48047L4.73047 8.81641C4.85742 8.94336 5.03516 8.94336 5.16211 8.81641L9.55469 4.47461Z"></path></svg></svg>

<svg xmlns="http://www.w3.org/2000/svg" width="16" height="16" fill="currentColor" aria-hidden="true" class="yc-icon GridTable-HeaderCellIcon"><svg xmlns="http://www.w3.org/2000/svg" viewBox="0 0 12 12"><path d="M10.469.438H1.53C.846.438.313.996.313 1.655v8.938c0 .685.533 1.219 1.218 1.219h8.938c.66 0 1.219-.534 1.219-1.22V1.657c0-.66-.56-1.218-1.22-1.218Zm0 10.156H1.53V1.656h8.938v8.938Zm-.914-6.12a.344.344 0 0 0 0-.431l-.584-.584c-.102-.127-.305-.127-.432 0L4.96 7.014 3.436 5.49a.292.292 0 0 0-.432 0l-.584.559c-.102.127-.102.33 0 .431l2.31 2.336a.292.292 0 0 0 .432 0l4.393-4.341Z"/></svg></svg>
